svgs/1F3B6.svg

<svg xmlns="http://www.w3.org/2000/svg" xmlns:xlink="http://www.w3.org/1999/xlink" preserveAspectRatio="none" viewBox="0 0 72 72"><defs><path id="a" fill="#37B4E2" d="M98.95 56.85q-1.75-.3-2.8-.05h-.1q-1 .05-1.65.75-.7.7-.65 1.65l.4 38.1q-3.55-2.2-8.35-1.95-3.85.2-7.45 1.85-3.7 1.7-5.95 4.4-1.85 2.2-2.55 4.35-1 3.05-.4 5.45.6 2.65 2.2 4.7 1.65 2.15 4 3.35 1.4.75 2.75 1.1 3.7.95 7.8-.4 3.7-1.25 6.8-4.05 2.45-2.15 4.05-5 1.8-3.2 1.85-6.15l.05-.35-.3-29.8 1.05-.05q2.7 0 4.9.4 5.25 1.05 8.15 4 2.35 2.35 3.35 3.1 1.95 1.5 4.05 1.85 1.1.2 2.45-.1 1.45-.4 2.05-1.2.85-1.2-.4-2.15-1.65-.95-2.15-1.45-.95-1.05-1.4-3.85-1.15-6.8-5.65-10.95-6.2-5.7-16.1-7.55z"/><path id="b" fill="#37B4E2" d="M35 83.1q.75 0 1.05.05 2.55.15 4.85.8 5.1 1.4 7.85 4.6 2.15 2.6 3.05 3.4 1.8 1.6 3.9 2.15 1.1.3 2.45.05 1.5-.25 2.15-1 .95-1.1-.2-2.15-1.6-1.1-2.05-1.65-.85-1.1-1.1-3.9-.55-6.9-4.75-11.35-5.75-6.3-15.45-8.85-1.55-.45-2.8-.25h-.05q-.95-.05-1.7.6t-.85 1.6l-2.6 38q-3.35-2.5-8.15-2.65-3.85-.1-7.6 1.25-3.8 1.45-6.3 3.95-2.1 2.2-2.85 4.1-1.2 2.9-.85 5.4.4 2.65 1.8 4.9 1.5 2.3 3.75 3.65 1.15.7 2.65 1.3 3.6 1.2 7.8.2 3.8-.95 7.15-3.45 2.6-1.95 4.4-4.65 2.05-3.1 2.3-6l.1-.35L35 83.1z"/><path id="c" fill="#37B4E2" d="M82.65 18.9q5.25 1.05 8.15 4.1 2.15 2.3 3.2 3.15 1.95 1.5 4.05 1.95 1.1.25 2.45-.1 1.5-.35 2.1-1.15.85-1.15-.4-2.15-1.65-1-2.1-1.5-.9-1-1.35-3.85-1-6.85-5.4-11.05-6.15-5.85-16-7.85-1.4-.35-2.8-.1h-.05q-1 0-1.7.7t-.7 1.65l-.25 38.1q-3.55-2.25-8.3-2.1-3.85.1-7.5 1.7-3.7 1.6-6.05 4.3-1.8 2.05-2.6 4.3-1.05 3-.55 5.45.6 2.65 2.15 4.75 1.65 2.2 3.95 3.4 1.6.85 2.75 1.15 3.65 1.05 7.8-.25 3.7-1.2 6.9-3.9 2.45-2.15 4.1-4.95 1.9-3.2 1.95-6.1l.05-.3.25-29.85 1.05-.05q2.35 0 4.85.55z"/></defs><use transform="translate(1.05 -29.8) scale(.5625)" xlink:href="#a"/><use transform="translate(-.8 -24.75) scale(.5625)" xlink:href="#b"/><use transform="translate(-11.3 34.25) scale(.5625)" xlink:href="#c"/></svg>

<svg xmlns="http://www.w3.org/2000/svg" version="1.1" xmlns:xlink="http://www.w3.org/1999/xlink" preserveAspectRatio="none" x="0px" y="0px" width="72px" height="72px" viewBox="0 0 72 72">
<defs>
<g id="Layer0_0_MEMBER_0_FILL">
<path fill="#37B4E2" stroke="none" d="
M 98.95 56.85
Q 97.2 56.55 96.15 56.8
L 96.05 56.8
Q 95.05 56.85 94.4 57.55 93.7 58.25 93.75 59.2
L 94.15 97.3
Q 90.6 95.1 85.8 95.35 81.95 95.55 78.35 97.2 74.65 98.9 72.4 101.6 70.55 103.8 69.85 105.95 68.85 109 69.45 111.4 70.05 114.05 71.65 116.1 73.3 118.25 75.65 119.45 77.05 120.2 78.4 120.55 82.1 121.5 86.2 120.15 89.9 118.9 93 116.1 95.45 113.95 97.05 111.1 98.85 107.9 98.9 104.95
L 98.95 104.6 98.65 74.8 99.7 74.75
Q 102.4 74.75 104.6 75.15 109.85 76.2 112.75 79.15 115.1 81.5 116.1 82.25 118.05 83.75 120.15 84.1 121.25 84.3 122.6 84 124.05 83.6 124.65 82.8 125.5 81.6 124.25 80.65 122.6 79.7 122.1 79.2 121.15 78.15 120.7 75.35 119.55 68.55 115.05 64.4 108.85 58.7 98.95 56.85 Z"/>
</g>

<g id="Layer0_0_MEMBER_1_FILL">
<path fill="#37B4E2" stroke="none" d="
M 35 83.1
Q 35.75 83.1 36.05 83.15 38.6 83.3 40.9 83.95 46 85.35 48.75 88.55 50.9 91.15 51.8 91.95 53.6 93.55 55.7 94.1 56.8 94.4 58.15 94.15 59.65 93.9 60.3 93.15 61.25 92.05 60.1 91 58.5 89.9 58.05 89.35 57.2 88.25 56.95 85.45 56.4 78.55 52.2 74.1 46.45 67.8 36.75 65.25 35.2 64.8 33.95 65
L 33.9 65
Q 32.95 64.95 32.2 65.6 31.45 66.25 31.35 67.2
L 28.75 105.2
Q 25.4 102.7 20.6 102.55 16.75 102.45 13 103.8 9.2 105.25 6.7 107.75 4.6 109.95 3.85 111.85 2.65 114.75 3 117.25 3.4 119.9 4.8 122.15 6.3 124.45 8.55 125.8 9.7 126.5 11.2 127.1 14.8 128.3 19 127.3 22.8 126.35 26.15 123.85 28.75 121.9 30.55 119.2 32.6 116.1 32.85 113.2
L 32.95 112.85 35 83.1 Z"/>
</g>

<g id="Layer0_0_MEMBER_2_FILL">
<path fill="#37B4E2" stroke="none" d="
M 82.65 18.9
Q 87.9 19.95 90.8 23 92.95 25.3 94 26.15 95.95 27.65 98.05 28.1 99.15 28.35 100.5 28 102 27.65 102.6 26.85 103.45 25.7 102.2 24.7 100.55 23.7 100.1 23.2 99.2 22.2 98.75 19.35 97.75 12.5 93.35 8.3 87.2 2.45 77.35 0.45 75.95 0.1 74.55 0.35
L 74.5 0.35
Q 73.5 0.35 72.8 1.05 72.1 1.75 72.1 2.7
L 71.85 40.8
Q 68.3 38.55 63.55 38.7 59.7 38.8 56.05 40.4 52.35 42 50 44.7 48.2 46.75 47.4 49 46.35 52 46.85 54.45 47.45 57.1 49 59.2 50.65 61.4 52.95 62.6 54.55 63.45 55.7 63.75 59.35 64.8 63.5 63.5 67.2 62.3 70.4 59.6 72.85 57.45 74.5 54.65 76.4 51.45 76.45 48.55
L 76.5 48.25 76.75 18.4 77.8 18.35
Q 80.15 18.35 82.65 18.9 Z"/>
</g>
</defs>

<g id="Layer_1">
<g transform="matrix( 0.5625, 0, 0, 0.5625, 1.05,-29.8) ">
<use xlink:href="#Layer0_0_MEMBER_0_FILL"/>
</g>

<g transform="matrix( 0.5625, 0, 0, 0.5625, -0.8,-24.75) ">
<use xlink:href="#Layer0_0_MEMBER_1_FILL"/>
</g>

<g transform="matrix( 0.5625, 0, 0, 0.5625, -11.3,34.25) ">
<use xlink:href="#Layer0_0_MEMBER_2_FILL"/>
</g>
</g>
</svg>
